X:180
T:Love’s Delightful Hour. CJF.180
R:air
S:C.J.Fox MS, 1829/33, Beverley,E.Yorks.
N:In the title line is “Harts 12th Set”.
N:”C J Fox 1830″ is in the stave, after the tune. – PJH.
B:Kidson Coll.Mitchell Lib.M1805
O:England
A:East Yorkshire
Z:vmp.P J Headford 2000 & 2008
M:2/4
L:1/16
Q:1/4=100
K:G
B3cd2g2|e2g2d4|e2(ba) (gfed)|(d4g2)H||
” f”A2|{^c}d2{c}d2{^d}e2{d}e2|f2(af) (d2^d2)|e2(fe) (d^c)(BA)|\
e2(fe) d2A2|!
{e}d>^cd>f {f}e>^de>g|f>ga>f (d2^d2)|\
e>fg>b {b}a>g{g}f>e|{e}d>^cd>e (d=c)(BA)|!
“p”B2c2g4|d3B {d}c>Bc>A|B2g2 (agfe)|d3B {d}c>Bc>A|
B2g2 (agfe)|d>gb>g {b}a>g” D Capo :$:”a>b|g6d2|]

